.local/share/icons/Gruvbox-Plus-Dark/actions/16/image-straighten.svg

<svg xmlns="http://www.w3.org/2000/svg" width="16" height="16" viewBox="0 0 16 16">
 <defs>
  <style id="current-color-scheme" type="text/css">
   .ColorScheme-Text { color:#ebdbb2; } .ColorScheme-Highlight { color:#458588; }
  </style>
 </defs>
 <path style="fill:currentColor" class="ColorScheme-Text" d="M 13.029297 1.03125 C 12.934297 1.03214 12.873047 1.0625 12.873047 1.0625 L 1.0625 3.125 C 0.0777 3.29865 0.25 4.28125 0.25 4.28125 L 0.71875 7 L 3.8125 7 L 4.9375 5.0625 L 7.375 7 L 9.6875 7 L 10.59375 5.78125 L 12.34375 7 L 14.9375 7 L 14.03125 1.875 C 13.90102 1.1364 13.31637 1.02858 13.03125 1.03125 L 13.029297 1.03125 z M 1 8 L 1 9 L 2 9 L 2 8 L 1 8 z M 3 8 L 3 9 L 4 9 L 4 8 L 3 8 z M 5 8 L 5 9 L 6 9 L 6 8 L 5 8 z M 7 8 L 7 9 L 8 9 L 8 8 L 7 8 z M 9 8 L 9 9 L 10 9 L 10 8 L 9 8 z M 11 8 L 11 9 L 12 9 L 12 8 L 11 8 z M 13 8 L 13 9 L 14 9 L 14 8 L 13 8 z M 15 8 L 15 9 L 16 9 L 16 8 L 15 8 z M 1.25 10 L 1.96875 14.15625 C 2.14239 15.14105 3.125 14.96875 3.125 14.96875 L 14.935547 12.875 C 14.935547 12.875 15.921687 12.70351 15.748047 11.71875 L 15.4375 10 L 13.4375 10 L 13.625 11.0625 L 3.78125 12.8125 L 3.28125 10 L 1.25 10 z"/>
</svg>

<svg width="16" height="16" version="1.1" xmlns="http://www.w3.org/2000/svg">
  <defs>
    <style id="current-color-scheme" type="text/css">.ColorScheme-Text { color:#ebdbb2; } .ColorScheme-Highlight { color:#458588; }</style>
  </defs>
  <path class="ColorScheme-Text" d="m13.05 1c-3.999 0.7059-8.009 1.403-12.01 2.102-0.9884 0.1742-0.8145 1.16-0.8145 1.16l0.4707 2.729h3.105l1.129-1.945 2.447 1.945h2.318l0.9102-1.223 1.756 1.223h2.604l-0.9102-5.145c-0.1307-0.7413-0.7174-0.8483-1.004-0.8457zm-12.05 7v1h2v-1zm3 0v1h2v-1zm3 0v1h2v-1zm3 0v1h2v-1zm3 0v1h2v-1zm-11.77 2.002 0.7207 4.172c0.1742 0.9884 1.16 0.8145 1.16 0.8145l11.85-2.102s0.9906-0.1723 0.8164-1.16l-0.3125-1.725h-2.006l0.1875 1.066-9.881 1.756-0.5-2.822h-2.035z" fill="currentColor"/>
</svg>
